arkscan/icons/stealthex.svg

<svg viewBox="0 0 20 12" fill="none" xmlns="http://www.w3.org/2000/svg">
  <path
    d="M16.3343 11.0333H0V0.966797H16.2393L16.2678 1.00477C16.8376 1.73602 19.6866 5.39226 19.8481 5.62018C20.0475 5.90508 20.0475 6.28495 19.8481 6.56985C19.6296 6.85475 16.3628 10.9953 16.3343 11.0333ZM8.16714 2.77117L10.4463 6.00004L7.97721 9.32389H10.6363L11.6809 7.51952L12.7255 9.32389H15.3846L12.9155 5.90508L15.2896 2.77117H12.7255L11.7759 4.29064L10.6363 2.77117H8.16714ZM2.08927 2.6762V9.32389H7.59734V7.51952H4.2735V6.75978H7.12251V5.05037H4.2735V4.38561H7.50237V2.6762H2.08927Z"
    fill="#7E8A9C" />
</svg>

<svg viewBox="0 0 20 12" fill="none" xmlns="http://www.w3.org/2000/svg"><path d="M16.334 11.033H0V.967h16.24l.028.038c.57.731 3.419 4.387 3.58 4.615.2.285.2.665 0 .95-.218.285-3.485 4.425-3.514 4.463ZM8.167 2.771 10.447 6l-2.47 3.324h2.66L11.68 7.52l1.045 1.804h2.659l-2.47-3.419 2.375-3.134h-2.564l-.95 1.52-1.14-1.52H8.167ZM2.09 2.676v6.648h5.508V7.52H4.273v-.76h2.85V5.05h-2.85v-.664h3.23v-1.71H2.088Z" fill="#7E8A9C"/></svg>
